X:4
T:Les 180 pucelles
D:La Bamboche - Quintessence
O:France
Z: Eric Forgeot - http://anamnese.online.fr -- http://anamnese.fr.st
M:4/4
L:1/8
Q:1/4=110
K:G
%%staves (1 2)
V:1
E>A B>c B3 A/B/ | c2 B>A B4 |
 E>A B>c B2-B>c | B>A G>B F2 E>c |
 B>A G>B F2 E2 :|
V:2
z2 .E<z .E<z .E<z |.E<z .E<z .E<z E2 |
z2 .E<z .E<z .E<z |.E<z z2 A2 B>z |
.E<z z2 A2 B2 :|
W:A Rouen il y a 
W:Ligetra tralala
W:A Rouen il y a 
W:Cent quatre vingt pucelles (2x)
W:Et elles danse-trent tt / Dessus un pont de verre 
W:Le verre cassa / Et l'on tombi par terre
W:Par ici passa / Le beau roi d'Angleterre
W:Les salua toutes / Hormis la plus belle
W:Tu ne m'as pas salue / Maudit roi d'Angleterre
W:Je ne te salue pas / Car tu n'es plus pucelle
W:A quoi vois-tu a / Maudit roi d'angleterre ?
W:A tes cheveux blonds / A ta bouche vermeille
W:A tes beau yeux bleux / Tes yeux couleur de ciel 
W: /???/
W:Au premier coup frapp / Le roi tombi par terre
W:Maudit roi est mort / Nous n'aurons plus de guerre





